X:1
T:Mentre del mondo
T:Mentre del mondo
T:Gio.Girolamo Kapsperger
C:Gio.Girolamo Kapsperger
%%score 1 { 2 | 3 }
L:1/8
Q:1/4=120
M:3/2
K:C
V:1 treble nm="Soprano" snm="S"
V:2 treble nm="BC" snm="BC"
V:3 bass 
V:1
 e4 c4 d4 | e8 e4 | f4 f4 e4 | d12 | B4 c4 d4 | e8 e4 | d8 d2 e2 | c12 :: e4 B4 ^c4 | d8 d4 | %10
w: Men- tre del|mon- do,|ch'e lu- sin-|ghier,|se- guo gio-|con- do,|va- ni pia-|cer'.|Gra- vi su-|do- ri,|
w: Da rio tir-|ran- no,|ch'a- mor non|ha,|per mio gran|dan- no,|spe- ro pie-|ta.|Ma poi ch'a-|ven- ti,|
w: E que- sto|si- a,|in- ci- so|sol,|nel ur- na|mi- a,|car- me di|duol.|Pom- pe bra-|ma- i,|
 c4 c4 d4 | e12 | G4 A4 B4 | c8 c4 | c4 B6 A2 | A12 :| %16
w: sen- za mer-|ce,|do- nu- ti'ho-|no- ri,|son di mia|fe.|
w: spie- go'il mar-|tir',|sa- na'i tor-|men- ti,|so- lo'il mo-|rir'.|
w: om- bre sol|ho,|e s'au- re'a-|ma- i,|in pol- ve|sto.|
V:2
 [EGc]8 [Gd]4 | [EGc]12 | [FAd]8 [EG]4 | [DB]12 | [GBd]4 [Gc]4 [FBd]4 | [EGc]12 | [FA]4 [DB]8 | %7
 [EGc]12 :: [EGc]4 [Bd]4 [G^c]4 | [^FAd]12 | [Ac]4 [Gc]4 [FB]4 | [EGc]12 | [GB]4 [Ec]4 [Gd]4 | %13
 [EAc]4 [Gd]4 [Gc]4 | [FA]4 A4 ^G4 | [EA]12 :| %16
V:3
 C,4 E,4 B,,4 | C,8 C,4 | D,8 C,4 | G,12 | G,4 E,4 D,4 | C,4 D,4 E,4 | F,4 G,6 G,2 | C,12 :: %8
 C,4 G,4 E,4 | D,8 D,4 | F,4 E,4 D,4 | C,12 | E,4 C,4 B,,4 | A,,4 B,,4 C,4 | D,4 [E,B,]6 [E,B,]2 | %15
 [A,,^C]12 :| %16

